lib/logo_tmp/nrk-logo-nrk-trafikk.svg

<svg width="106" height="16" viewBox="0 0 106 16" fill="none" xmlns="http://www.w3.org/2000/svg">
<path d="M6.10352e-05 14.9998V1.00111H4.59345V14.9998H6.10352e-05ZM10.8428 3.22908L13.4845 14.9998H8.45743L5.30313 1.00111H8.1226C8.76913 0.992718 9.39647 1.22063 9.88698 1.64196C10.3783 2.04562 10.7158 2.60598 10.8428 3.22908ZM14.1745 14.9998V1.00111H18.7679V14.9998H14.1745ZM22.2373 6.32462C21.7423 6.32945 21.2553 6.19994 20.828 5.94996C20.4065 5.70631 20.0563 5.35612 19.8127 4.93454C19.5625 4.50722 19.4329 4.02006 19.4379 3.52487C19.4322 3.03271 19.5618 2.54845 19.8127 2.125C20.0589 1.70799 20.4087 1.36161 20.828 1.11944C21.2554 0.869757 21.7423 0.740271 22.2373 0.744785C22.7293 0.739486 23.2134 0.869088 23.637 1.11944C24.0521 1.36374 24.3982 1.70982 24.6424 2.125C24.893 2.54857 25.0226 3.03275 25.0173 3.52487C25.0219 4.02002 24.8924 4.5071 24.6424 4.93454C24.4007 5.35427 24.0543 5.70416 23.637 5.94996C23.2133 6.20081 22.7289 6.33044 22.2366 6.32462H22.2373ZM25.727 14.9998V1.00111H30.3208V14.9998H25.727ZM36.1361 8.65111C36.149 8.66469 36.2475 8.8257 36.4318 9.13415C36.616 9.44261 36.8558 9.83697 37.1513 10.3172C37.447 10.7972 37.7591 11.3065 38.0874 11.8452C38.4158 12.3839 38.7248 12.8933 39.0144 13.3732C39.3028 13.8532 39.6314 14.3954 40.0001 14.9998H34.9532C34.6376 14.4872 34.3516 14.0239 34.0953 13.6098C33.839 13.1958 33.5666 12.7489 33.2779 12.2691C32.9885 11.7898 32.7024 11.3231 32.4196 10.8692C32.1368 10.4153 31.8938 10.0177 31.6905 9.6764C31.4864 9.33487 31.345 9.10481 31.2663 8.9863C31.0714 8.69219 30.956 8.35251 30.9315 8.00047C30.9511 7.66259 31.0598 7.33598 31.2466 7.0538C31.3255 6.92236 31.4701 6.689 31.6803 6.35382C31.8906 6.01864 32.1371 5.62107 32.4196 5.16101C32.7022 4.70096 32.9883 4.23104 33.2779 3.75127C33.5675 3.27151 33.8399 2.82128 34.0953 2.40066C34.352 1.98048 34.638 1.51385 34.9532 1.00079H40.0001L36.0963 7.36925C35.9755 7.55833 35.9074 7.77624 35.8991 8.00047C35.9121 8.23588 35.9943 8.46221 36.1354 8.65111H36.1361Z" fill="white"/>
<path d="M56.471 1.06264H45.3334V2.79603H49.8714V15.0479H51.9522V2.79603H56.4707L56.471 1.06264Z" fill="white"/>
<path d="M60.5337 4.93335C60.1632 5.03239 59.8092 5.18504 59.4833 5.3864C59.1454 5.59624 58.8329 5.84409 58.552 6.12505C58.5051 6.17167 58.4594 6.22357 58.4132 6.27249V4.80535L56.3918 5.10078V15.048H58.4132V7.60633C58.5633 7.50206 58.7188 7.40553 58.879 7.31711C59.077 7.20837 59.2821 7.11281 59.4929 7.03114C59.6981 6.95235 59.9058 6.88344 60.1176 6.82468C60.335 6.76427 60.5571 6.72135 60.7815 6.69632C61.0216 6.66993 61.2636 6.66333 61.5048 6.6766L61.7426 4.82503C61.3364 4.79618 60.9282 4.83275 60.5337 4.93335Z" fill="white"/>
<path d="M71.9093 13.8068C71.7644 13.8201 71.6185 13.7984 71.4839 13.7435C71.3493 13.6886 71.2301 13.6022 71.1363 13.4916C70.9526 13.176 70.8761 12.8099 70.9184 12.4477L70.958 8.38998C70.9623 7.96459 70.909 7.54057 70.7994 7.12935C70.7032 6.76868 70.5421 6.4283 70.3238 6.12476C70.1033 5.82792 69.8233 5.57977 69.5014 5.39596C69.1274 5.18477 68.7231 5.03197 68.3024 4.94291C67.7881 4.83278 67.2629 4.78003 66.7367 4.78566C66.3194 4.78538 65.9026 4.81159 65.4886 4.86413C65.0973 4.91302 64.7098 4.98873 64.3289 5.09067C63.9759 5.18583 63.6286 5.30089 63.2888 5.43535L63.0507 7.10963C63.381 6.99145 63.6948 6.89299 63.992 6.8142C64.2893 6.73541 64.5766 6.66972 64.8541 6.6172C65.1259 6.56541 65.4005 6.52935 65.6765 6.50919C65.9471 6.48928 66.2148 6.47934 66.4795 6.47934C66.8836 6.47077 67.287 6.51714 67.6784 6.6172C67.9639 6.68836 68.2264 6.83073 68.4411 7.03085C68.6323 7.22562 68.7689 7.46668 68.8375 7.73011C68.9223 8.05491 68.9624 8.38965 68.9567 8.72516L68.9544 9.2176L66.6377 9.37353C65.8454 9.39566 65.0649 9.56957 64.3389 9.88569C63.7956 10.122 63.3266 10.4997 62.9813 10.9789C62.6884 11.4054 62.5329 11.9103 62.5354 12.4267C62.5317 12.9112 62.651 13.3888 62.8822 13.8153C63.1247 14.2535 63.4894 14.6126 63.9325 14.8495C64.4732 15.129 65.0774 15.2647 65.6864 15.2434C66.2572 15.2564 66.8253 15.1629 67.3614 14.9676C67.8247 14.7875 68.2485 14.5199 68.6096 14.1797C68.7467 14.049 68.8767 13.9113 68.9993 13.7671C69.038 13.971 69.1105 14.167 69.214 14.3472C69.3905 14.6488 69.6622 14.8842 69.9869 15.0169C70.3458 15.1601 70.7298 15.2305 71.1165 15.2237C71.2354 15.2237 71.3511 15.2204 71.4636 15.2139C71.5738 15.2075 71.6832 15.191 71.7903 15.1646C71.896 15.1383 71.9915 15.1154 72.0777 15.0957C72.1553 15.0785 72.2315 15.0554 72.3056 15.0267L72.5239 13.707C72.4143 13.7442 72.3014 13.7706 72.1866 13.7858C72.0947 13.7986 72.0021 13.8056 71.9093 13.8068ZM68.9389 12.6102C68.838 12.7228 68.7275 12.8266 68.6086 12.9204C68.3937 13.0892 68.1611 13.2345 67.915 13.3537C67.6698 13.4723 67.41 13.5584 67.1424 13.6098C66.8648 13.6631 66.5828 13.6895 66.3002 13.6886C65.9771 13.6978 65.6558 13.6373 65.3585 13.5113C65.1167 13.4071 64.9128 13.2318 64.7742 13.0091C64.6368 12.773 64.5681 12.5036 64.5759 12.231C64.5568 11.9026 64.6474 11.5772 64.8336 11.3052C65.0493 11.0549 65.3417 10.8819 65.6659 10.8128C66.1722 10.6944 66.6919 10.6414 67.2118 10.6552H68.9471L68.9389 12.6102Z" fill="white"/>
<path d="M79.3703 0.333913C79.1655 0.294518 78.9575 0.264966 78.7461 0.245268C78.5347 0.225571 78.3101 0.215693 78.0723 0.215693C77.6417 0.212949 77.2135 0.279498 76.8043 0.4127C76.4153 0.539861 76.0598 0.75186 75.7638 1.03318C75.4575 1.32948 75.2207 1.68929 75.0702 2.08698C74.895 2.56639 74.811 3.07401 74.8225 3.58397V5.00221H73.3362V6.5386H74.8225V15.0479H76.8439V6.5386H79.6184V5.00221H76.8439V3.36733C76.8396 3.14261 76.8765 2.919 76.9529 2.70746C77.0176 2.52871 77.1226 2.367 77.2597 2.2347C77.4034 2.10351 77.5769 2.0089 77.7654 1.95894C77.9879 1.89764 78.218 1.86779 78.4488 1.8703C78.6077 1.8703 78.7589 1.87721 78.9049 1.89001C79.0509 1.90282 79.192 1.92282 79.331 1.94908C79.4701 1.97535 79.6015 2.00161 79.7274 2.02787C79.8393 2.05002 79.9489 2.08303 80.0544 2.12637L79.9751 0.491487C79.7772 0.42585 79.5752 0.373216 79.3703 0.333913Z" fill="white"/>
<path d="M81.5798 15.048H83.6012V4.80535L81.5798 5.10078V15.048Z" fill="white"/>
<path d="M83.3139 0.678441C83.1082 0.553517 82.8713 0.488686 82.6302 0.491332C82.3861 0.489381 82.1461 0.554094 81.9365 0.678441C81.7299 0.798767 81.5563 0.967911 81.4312 1.17088C81.3053 1.37527 81.2401 1.61085 81.243 1.85047C81.2408 2.09309 81.3059 2.3316 81.4312 2.53987C81.5524 2.7459 81.7269 2.91593 81.9365 3.03231C82.1482 3.15064 82.3874 3.21173 82.6302 3.20956C82.87 3.21239 83.1061 3.15119 83.3139 3.03231C83.5178 2.91505 83.6856 2.74481 83.7995 2.53987C83.9185 2.3295 83.98 2.09181 83.9778 1.85047C83.9807 1.61215 83.9191 1.37742 83.7995 1.17088C83.6817 0.968868 83.5148 0.79953 83.3139 0.678441Z" fill="white"/>
<path d="M95.3135 5.00215H92.8363L89.4452 8.70529H88.7142V0.176234L86.6928 0.471704V15.0479H88.7142V10.222H88.7473L92.7964 15.0479H95.4123L90.6052 9.66388L95.3135 5.00215Z" fill="white"/>
<path d="M101.009 9.61208L105.718 4.95031H103.241L99.8495 8.65345H99.1185V0.124756L97.0971 0.420227V14.9964H99.1185V10.1705H99.1516L103.201 14.9964H105.817L101.009 9.61208Z" fill="white"/>
</svg>

<svg xmlns="http://www.w3.org/2000/svg" viewBox="0 0 106 16"><path fill="#fff" d="M0 15V1h4.593V15H0ZM10.843 3.23 13.485 15H8.457L5.303 1h2.82a2.655 2.655 0 0 1 1.764.641c.491.404.829.964.956 1.587ZM14.175 15V1h4.593V15h-4.594Zm8.062-8.675a2.779 2.779 0 0 1-2.425-1.39 2.735 2.735 0 0 1-.374-1.41 2.685 2.685 0 0 1 .375-1.4 2.813 2.813 0 0 1 3.824-1.006c.415.245.761.59 1.005 1.006.251.424.38.908.375 1.4.005.495-.125.982-.375 1.41a2.8 2.8 0 0 1-1.005 1.015c-.424.25-.908.38-1.4.375ZM25.727 15V1h4.594V15h-4.594Zm10.41-6.349c.012.014.11.175.295.483.184.309.424.703.72 1.183a373.133 373.133 0 0 1 1.862 3.056c.289.48.617 1.022.986 1.627h-5.047c-.315-.513-.601-.976-.858-1.39-.256-.414-.528-.861-.817-1.34-.29-.48-.576-.947-.858-1.4a71.148 71.148 0 0 1-.73-1.194 20.736 20.736 0 0 0-.424-.69A2.041 2.041 0 0 1 30.932 8c.02-.337.128-.664.315-.946.079-.132.223-.365.433-.7a212.331 212.331 0 0 0 1.598-2.603l.817-1.35.858-1.4H40l-3.904 6.368c-.12.19-.189.407-.197.631.013.236.095.462.236.651h.001ZM56.471 1.063H45.333v1.733h4.538v12.252h2.081V2.796h4.519V1.063ZM60.534 4.933c-.37.1-.725.252-1.05.453-.339.21-.651.458-.932.739-.047.047-.093.099-.139.147V4.805l-2.021.296v9.947h2.021V7.606a5.111 5.111 0 0 1 1.08-.575c.205-.079.413-.148.625-.206a4.233 4.233 0 0 1 1.387-.148l.238-1.852a3.802 3.802 0 0 0-1.21.108ZM71.91 13.807a.907.907 0 0 1-.774-.315 1.686 1.686 0 0 1-.218-1.044l.04-4.058a4.71 4.71 0 0 0-.159-1.26 3.08 3.08 0 0 0-.475-1.005 2.68 2.68 0 0 0-.823-.729 4.213 4.213 0 0 0-1.199-.453 7.115 7.115 0 0 0-1.565-.157 9.86 9.86 0 0 0-1.248.078 8.62 8.62 0 0 0-1.16.227c-.353.095-.7.21-1.04.344L63.05 7.11a11.718 11.718 0 0 1 1.803-.493c.272-.052.546-.088.823-.108.27-.02.538-.03.802-.03a4.46 4.46 0 0 1 1.2.138c.285.071.547.214.762.414.191.195.328.436.397.7.084.324.124.659.119.994l-.003.493-2.316.156a6.192 6.192 0 0 0-2.3.512 3.29 3.29 0 0 0-1.357 1.093 2.535 2.535 0 0 0-.446 1.448c-.003.484.116.962.347 1.388.243.439.607.798 1.05 1.035a3.55 3.55 0 0 0 1.754.393c.571.013 1.14-.08 1.675-.275a3.86 3.86 0 0 0 1.249-.788c.137-.131.267-.269.39-.413.038.204.11.4.214.58.177.302.448.537.773.67a2.91 2.91 0 0 0 1.13.207c.118 0 .234-.004.347-.01.11-.007.22-.023.326-.05.106-.026.201-.049.288-.068.077-.018.153-.04.228-.07l.218-1.319c-.11.037-.223.064-.337.079-.092.013-.185.02-.278.02Zm-2.971-1.197c-.101.113-.211.217-.33.31a3.816 3.816 0 0 1-.694.434 3.13 3.13 0 0 1-.773.256c-.277.053-.56.08-.842.079a2.25 2.25 0 0 1-.941-.178 1.289 1.289 0 0 1-.585-.502 1.464 1.464 0 0 1-.198-.778c-.02-.328.071-.654.258-.926.215-.25.508-.423.832-.492a6.081 6.081 0 0 1 1.546-.158h1.735l-.008 1.955ZM79.37.334a6.49 6.49 0 0 0-1.298-.118 4.014 4.014 0 0 0-1.268.197c-.389.127-.744.339-1.04.62a2.889 2.889 0 0 0-.694 1.054c-.175.48-.259.987-.247 1.497v1.418h-1.487V6.54h1.487v8.509h2.02v-8.51h2.775V5.003h-2.774V3.367a1.839 1.839 0 0 1 .109-.66c.065-.178.17-.34.307-.472a1.21 1.21 0 0 1 .505-.276c.223-.061.453-.091.684-.089.159 0 .31.007.456.02.146.013.287.033.426.06.14.025.27.052.396.078.112.022.222.055.327.098L79.975.491a4.784 4.784 0 0 0-.605-.157ZM81.58 15.048H83.6V4.805l-2.021.296v9.947ZM83.314.678a1.29 1.29 0 0 0-.684-.187 1.339 1.339 0 0 0-.694.187c-.206.12-.38.29-.505.493-.126.204-.19.44-.188.68-.002.242.063.48.188.689.121.206.296.376.505.492.212.119.451.18.694.178.24.002.476-.059.684-.178.204-.117.372-.287.486-.492.118-.21.18-.448.178-.69a1.324 1.324 0 0 0-.178-.68 1.396 1.396 0 0 0-.486-.492ZM95.314 5.002h-2.478l-3.39 3.703h-.732V.176l-2.021.296v14.576h2.021v-4.826h.033l4.05 4.826h2.615l-4.807-5.384 4.709-4.662ZM101.009 9.612l4.709-4.662h-2.477L99.85 8.653h-.731V.125L97.096.42v14.576h2.022v-4.825h.033l4.049 4.825h2.616l-4.808-5.384Z"/></svg>
